X: 908
T: Gözlerinden Dökülen Sevdânı...
C: Gülen Ertek
O: Turkey
F: http://compmusic.upf.edu/node/140
N: ferahnak--sarki--aksak--gozlerinden_dokulen--gulen_ertek
N: makam= ferahnak
N: form= sarki
N: usul= aksak = 9/8
M: 9/8
L: 1/16
K: C ^f ^c  
Q: 1/4=192
%%MIDI tuningsystem comma53
d2d2 f2f2 a2a2 =c'2b2 a2 | b4a2 g2ag f^ef6  | \
w:  ARANAĞME  |   | 
c4 e4 g4 b2a2 g2 | 
w:   | 
f2 e2d2 c2d2 B2A6  | d4 a2g2 f2g2 f2e2 d2 | \
w:   |   | 
A3Bc2 d2e2 d2c2 B2A2  | 
w:   | 
G4 (3=f2e2d2 (3=c2B2A2 G2F2 ^E2 | \
w:   | 
^E2 A2G2 F2F8z2  | d2d2 f2f2 a2a2 =c'2b2 a2 | 
w:   |  ARANAĞME  | 
b4a2 g2ag f^ef6  | c4 e4 g4 b2a2 g2 | \
w:   |   | 
f2 e2d2 c2d2 B2A6  | 
w:   | 
d4 a2g2 f2g2 f2e2 d2 | A3Bc2 d2e2 d2c2 B2A2  | \
w:   |   | 
G4 (3=f2e2d2 (3=c2B2A2 G2F2 ^E2 | 
w:   | 
^E2 A2G2 F2F8z2  | f6f2 d2f2 a2b2 a2 | \
w:   |  Göz le rin *  den   | 
z4a2 b2a2 g2f2 e2d2  | 
w:  dö kü len  *  sev  | 
e2f2 g2a2 g2f2 a2g2 f2 | f6 c2d2 ^3/4e2f6  | \
w:  dâ *  *  nı  sak *  la ma   |  yâr   SAZ  | 
f6f2 d2f2 a2b2 a2 | 
w:  Göz le rin *  den   | 
z4a2 b2a2 g2f2 e2d2  | e2f2 g2a2 g2f2 a2g2 f2 | \
w:  dö kü len  *  sev  |  dâ *  *  nı  sak *  la ma   | 
f6 g2f2 g2a6  | 
w:  yâr   SAZ  | 
a4 a2b2 a4 g2^3/4f2 e2 | g4g2 a2g2 ^3/4f2e2 d4  | \
w:  Bir  ke re  sen   |  sev dim  *  *  *  de  hep   | 
g2^3/4f2 e2d2 g2f2 e2d2 c2 | 
w:  ben *  den  *  bek *  le me   | 
d6 A2B2 c2d4z2  | d4 d2a2 g2=f2 e2d2 =c2 | \
w:  yâr   SAZ  |  Bir  ke re  sen   | 
e2 d2=c2 _1/4B2c2 B2A2 B4  | 
w:  sev *  dim  *  *  *  de  hep   | 
d2=c2 _1/4B2A2 A2B2 A2G2 F2 | F4F4f2 g2a4z2  | \
w:  ben *  den  *  bek *  le me   |  yâr   *  SAZ  | 
a4 f4 g2^3/4f2 e4 g2 | 
w:  Kar şım *  *  *  da   | 
f2 e2d2 c2d2 B2A4z2  | z2f4f2 f4 a6 | \
w:  böy *  le  su sup   |  der de  dert  ek  | 
a4=c'2 b2a4f2 g2a2  | a4 f4 g2f2 e4 g2 | 
w:  *  le me  yâr   SAZ  |  Kar şım *  *  *  da   | 
f2 e2d2 c2d2 B2A4z2  | z2f4f2 f4 g6 | \
w:  öy *  le  su sup   |  der de  dert  ek  | 
g4a2 gff8-f2  | a4 a2b2 a4 g2^3/4f2 e2 | 
w:  *  le me  *  yâr    |  Bir  ke re  sen   | 
g4g2 a2g2 ^3/4f2e2 d4  | g2^3/4f2 e2d2 g2f2 e2d2 c2 | \
w:  sev dim  *  *  *  de  hep   |  ben *  den  *  bek *  le me   | 
d6 A2B2 c2d4z2  | 
w:  yâr   SAZ  | 
d4 d2a2 g2=f2 e2d2 =c2 | e2 d2=c2 _1/4B2c2 B2A2 B4  | \
w:  Bir  ke re  sen   |  sev *  dim  *  *  *  de  hep   | 
d2=c2 _1/4B2A2 A2B2 A2G2 F2 | 
w:  ben *  den  *  bek *  le me   | 
F16z2  | |


